icon-themes/breeze_svg/cmd/sc_spelling.svg

<svg viewBox="0 0 16 16" xmlns="http://www.w3.org/2000/svg"><path d="m7 12a1 1 0 0 0 -1 1 1 1 0 0 0 1 1 1 1 0 0 0 1-1 1 1 0 0 0 -1-1zm3 0a1 1 0 0 0 -1 1 1 1 0 0 0 1 1 1 1 0 0 0 1-1 1 1 0 0 0 -1-1zm3 0a1 1 0 0 0 -1 1 1 1 0 0 0 1 1 1 1 0 0 0 1-1 1 1 0 0 0 -1-1z" fill="#27ae60"/><path d="m6.3828125 2-4.3828125 11h1.3574219l1.1894531-3h4.9277344l.3847656 1h1.367187l-3.4785151-9zm.6796875 1.328125c.11316.3760797.7114746 2.0819668 1.796875 5.1152344l.2246094.5566406h-4.1425782z" fill="#4d4d4d"/></svg>

<svg xmlns="http://www.w3.org/2000/svg" viewBox="0 0 16 16">
 <path 
     style="fill:#27ae60" 
     d="M 7 12 A 1 1 0 0 0 6 13 A 1 1 0 0 0 7 14 A 1 1 0 0 0 8 13 A 1 1 0 0 0 7 12 z M 10 12 A 1 1 0 0 0 9 13 A 1 1 0 0 0 10 14 A 1 1 0 0 0 11 13 A 1 1 0 0 0 10 12 z M 13 12 A 1 1 0 0 0 12 13 A 1 1 0 0 0 13 14 A 1 1 0 0 0 14 13 A 1 1 0 0 0 13 12 z "
     />
 <path 
     style="fill:#4d4d4d" 
     d="M 6.3828125 2 L 2 13 L 3.3574219 13 L 4.546875 10 L 9.4746094 10 L 9.859375 11 L 11.226562 11 L 7.7480469 2 L 6.3828125 2 z M 7.0625 3.328125 C 7.17566 3.7042047 7.7739746 5.4100918 8.859375 8.4433594 L 9.0839844 9 L 4.9414062 9 L 7.0625 3.328125 z "
     />
 </svg>
